src/hbcore/resources/themes/icons/hbdefault/scalable/qtg_mono_settings.svg

<?xml version="1.0" encoding="UTF-8" standalone="no"?>
<!DOCTYPE svg PUBLIC "-//W3C//DTD SVG 1.1 Tiny//EN" "http://www.w3.org/Graphics/SVG/1.1/DTD/svg11-tiny.dtd">
<svg xmlns="http://www.w3.org/2000/svg" xmlns:xlink="http://www.w3.org/1999/xlink" baseProfile="tiny" height="30" viewBox="0 0 30 30" width="30">
<rect fill="none" height="30" width="30"/>
<path d="M22.49,21.78c-0.146-0.146-0.423-0.106-0.619,0.089-0.195,0.195-0.234,0.472-0.088,0.618l1.592,1.591c0.146,0.146,0.423,0.107,0.618-0.088s0.235-0.473,0.089-0.619l-1.59-1.59z"/>
<path d="M27.88,20.1l-9.029-9.028c0.489-2.928-0.385-6.041-2.639-8.295-3.704-3.704-9.73-3.704-13.44,0-3.703,3.704-3.703,9.73,0,13.44,2.255,2.254,5.369,3.128,8.297,2.639l9.027,9.028c1.949,1.949,5.122,1.949,7.072,0l0.707-0.707c1.95-1.96,1.95-5.13,0-7.08zm-23.91-14.01l4.114,4.113-3.505,3.505c-1.852-2.16-2.066-5.247-0.609-7.611zm21.79,18.96l-0.707,0.707c-0.78,0.781-2.048,0.781-2.829,0l-10.26-10.27c-1.9,0.773-4.089,0.629-5.867-0.467l5.529-5.528c0.781-0.78,0.781-2.047,0-2.828l-3.516-3.51c2.092-0.456,4.365,0.122,5.988,1.745,1.91,1.909,2.38,4.717,1.41,7.071l10.25,10.26c0.79,0.77,0.79,2.04,0.01,2.82z"/>
</svg>

<?xml version="1.0" encoding="UTF-8"?>
<!DOCTYPE svg PUBLIC "-//W3C//DTD SVG 1.1 Tiny//EN" "http://www.w3.org/Graphics/SVG/1.1/DTD/svg11-tiny.dtd">
<svg baseProfile="tiny" height="30" viewBox="0 0 30 30" width="30" xmlns="http://www.w3.org/2000/svg" xmlns:xlink="http://www.w3.org/1999/xlink">
<rect fill="none" height="30" width="30"/>
<path d="M22.488,21.781c-0.146-0.146-0.423-0.106-0.619,0.089c-0.195,0.195-0.234,0.472-0.088,0.618l1.592,1.591 c0.146,0.146,0.423,0.107,0.618-0.088s0.235-0.473,0.089-0.619L22.488,21.781z"/>
<path d="M27.881,20.102l-9.029-9.028c0.489-2.928-0.385-6.041-2.639-8.295c-3.704-3.704-9.73-3.704-13.436,0 c-3.703,3.704-3.703,9.73,0,13.435c2.255,2.254,5.369,3.128,8.297,2.639l9.027,9.028c1.949,1.949,5.122,1.949,7.072,0l0.707-0.707 C29.83,25.224,29.83,22.052,27.881,20.102z M3.967,6.089l4.114,4.113l-3.505,3.505C2.724,11.543,2.51,8.453,3.967,6.089z M25.759,25.052l-0.707,0.707c-0.78,0.781-2.048,0.781-2.829,0L11.955,15.49c-1.9,0.773-4.089,0.629-5.867-0.467l5.529-5.528 c0.781-0.78,0.781-2.047,0-2.828L8.104,3.154c2.092-0.456,4.365,0.122,5.988,1.745C16,6.808,16.47,9.616,15.505,11.969 l10.254,10.255C26.54,23.004,26.54,24.271,25.759,25.052z"/>
</svg>
